src/assets/icons/icon_image.svg

<svg width="24" height="24" viewBox="0 0 24 24" fill="none" xmlns="http://www.w3.org/2000/svg">
<path fill-rule="evenodd" clip-rule="evenodd" d="M14.23 2H10C5.58172 2 2 5.58172 2 10V14.24C2 18.6583 5.58172 22.24 10 22.24H14.23C18.6483 22.24 22.23 18.6583 22.23 14.24V10C22.23 5.58172 18.6483 2 14.23 2ZM8.12 6.12C9.22457 6.12 10.12 7.01543 10.12 8.12C10.12 9.22457 9.22457 10.12 8.12 10.12C7.01543 10.12 6.12 9.22457 6.12 8.12C6.12 7.01543 7.01543 6.12 8.12 6.12ZM15.51 20.12C18.3411 19.0627 20.2212 16.3621 20.23 13.34L20.2 11.62C20.2 11.21 20.12 10.44 20.12 10.44H18.49C14.7164 10.4515 11.2706 12.5862 9.58 15.96C8.35291 14.863 6.76591 14.2546 5.12 14.25H3.91C3.82074 16.5747 5.08341 18.7415 7.15 19.81C7.88878 20.2036 8.71293 20.4096 9.55 20.41H13.72C14.329 20.4187 14.9349 20.3206 15.51 20.12Z" fill="#64748B"/>
</svg>

<svg xmlns="http://www.w3.org/2000/svg" fill="none" viewBox="0 0 24 24"><path fill="#64748b" fill-rule="evenodd" d="M14.23 2H10a8 8 0 0 0-8 8v4.24a8 8 0 0 0 8 8h4.23a8 8 0 0 0 8-8V10a8 8 0 0 0-8-8M8.12 6.12a2 2 0 1 1 0 4 2 2 0 0 1 0-4m7.39 14a7.26 7.26 0 0 0 4.72-6.78l-.03-1.72c0-.41-.08-1.18-.08-1.18h-1.63a10 10 0 0 0-8.91 5.52 6.72 6.72 0 0 0-4.46-1.71H3.91a6 6 0 0 0 3.24 5.56 5.1 5.1 0 0 0 2.4.6h4.17a5.2 5.2 0 0 0 1.79-.29" clip-rule="evenodd"/></svg>
